docs/assets/img/sprite-icons.svg

<svg xmlns="http://www.w3.org/2000/svg" xmlns:xlink="http://www.w3.org/1999/xlink">
    
    <symbol id="heart" width="28" height="26" viewBox="0 0 28 26">
        <path d="M20.3 0C17.864 0 15.526 1.134 14 2.926C12.474 1.134 10.136 0 7.7 0C3.388 0 0 3.388 0 7.7C0 12.992 4.76 17.304 11.97 23.856L14 25.69L16.03 23.842C23.24 17.304 28 12.992 28 7.7C28 3.388 24.612 0 20.3 0ZM14.14 21.77L14 21.91L13.86 21.77C7.196 15.736 2.8 11.746 2.8 7.7C2.8 4.9 4.9 2.8 7.7 2.8C9.856 2.8 11.956 4.186 12.698 6.104H15.316C16.044 4.186 18.144 2.8 20.3 2.8C23.1 2.8 25.2 4.9 25.2 7.7C25.2 11.746 20.804 15.736 14.14 21.77Z" fill="#76607A"/>
    </symbol>

    <symbol id="arrow-right" width="54" height="54" viewBox="0 0 54 54">
        <path d="M27 -1.18021e-06C34.1608 -1.49322e-06 41.0284 2.84463 46.0919 7.90811C51.1554 12.9716 54 19.8392 54 27C54 34.1608 51.1554 41.0284 46.0919 46.0919C41.0284 51.1554 34.1608 54 27 54C19.8392 54 12.9716 51.1554 7.90812 46.0919C2.84463 41.0284 -8.67197e-07 34.1608 -1.18021e-06 27C-1.49322e-06 19.8392 2.84463 12.9716 7.90812 7.90812C12.9716 2.84463 19.8392 -8.67197e-07 27 -1.18021e-06ZM15.1875 25.3125C14.7399 25.3125 14.3107 25.4903 13.9943 25.8068C13.6778 26.1232 13.5 26.5524 13.5 27C13.5 27.4476 13.6778 27.8768 13.9943 28.1932C14.3107 28.5097 14.7399 28.6875 15.1875 28.6875L34.7389 28.6875L27.4928 35.9302C27.1759 36.2471 26.9979 36.6769 26.9979 37.125C26.9979 37.5731 27.1759 38.0029 27.4928 38.3197C27.8096 38.6366 28.2394 38.8146 28.6875 38.8146C29.1356 38.8146 29.5654 38.6366 29.8823 38.3197L40.0073 28.1947C40.1644 28.038 40.2891 27.8518 40.3742 27.6468C40.4592 27.4417 40.503 27.222 40.503 27C40.503 26.778 40.4592 26.5583 40.3742 26.3532C40.2891 26.1482 40.1644 25.962 40.0073 25.8052L29.8823 15.6802C29.5654 15.3634 29.1356 15.1854 28.6875 15.1854C28.2394 15.1854 27.8096 15.3634 27.4928 15.6802C27.1759 15.9971 26.9979 16.4269 26.9979 16.875C26.9979 17.3231 27.1759 17.7529 27.4928 18.0698L34.7389 25.3125L15.1875 25.3125Z" fill="#F5FBF2"/>
    </symbol>
</svg>

<svg xmlns="http://www.w3.org/2000/svg"><symbol id="heart" viewBox="0 0 28 26"><path d="M20.3 0c-2.436 0-4.774 1.134-6.3 2.926C12.474 1.134 10.136 0 7.7 0 3.388 0 0 3.388 0 7.7c0 5.292 4.76 9.604 11.97 16.156L14 25.69l2.03-1.848C23.24 17.304 28 12.992 28 7.7 28 3.388 24.612 0 20.3 0zm-6.16 21.77l-.14.14-.14-.14C7.196 15.736 2.8 11.746 2.8 7.7c0-2.8 2.1-4.9 4.9-4.9 2.156 0 4.256 1.386 4.998 3.304h2.618C16.044 4.186 18.144 2.8 20.3 2.8c2.8 0 4.9 2.1 4.9 4.9 0 4.046-4.396 8.036-11.06 14.07z" fill="#76607A"/></symbol><symbol id="arrow-right" viewBox="0 0 54 54"><path d="M27 0a27 27 0 110 54 27 27 0 010-54zM15.187 25.313a1.687 1.687 0 100 3.375H34.74l-7.246 7.242a1.69 1.69 0 002.39 2.39l10.124-10.125a1.688 1.688 0 000-2.39L29.882 15.68a1.69 1.69 0 00-2.39 2.39l7.247 7.242H15.188z" fill="#F5FBF2"/></symbol></svg>
